icons/person-percent.svg

<svg xmlns="http://www.w3.org/2000/svg" width="24" height="24" viewBox="0 0 24 24">
  <path d="M10,16 C12.9230769,16 15.8461538,16.9493754 15.9941334,19.3106425 L16,19.5 L16,20.5 C16,20.975 16,21.90125 15.142625,21.9926875 L15,22 L3,22 C2.1,22 2.01,21.19 2.001,20.6635 L2,19.5 C2,17.0641026 4.84812623,16.0522682 7.76928134,16.0019808 L8,16 L10,16 Z M9,6 C11.209139,6 13,7.790861 13,10 C13,12.209139 11.209139,14 9,14 C6.790861,14 5,12.209139 5,10 C5,7.790861 6.790861,6 9,6 Z M21.7071068,8.29289322 C22.0976311,8.68341751 22.0976311,9.31658249 21.7071068,9.70710678 C21.3165825,10.0976311 20.6834175,10.0976311 20.2928932,9.70710678 C19.9023689,9.31658249 19.9023689,8.68341751 20.2928932,8.29289322 C20.6834175,7.90236893 21.3165825,7.90236893 21.7071068,8.29289322 Z M21.7071068,2.29289322 C22.0675907,2.65337718 22.0953203,3.22060824 21.7902954,3.61289944 L21.7071068,3.70710678 L15.7071068,9.70710678 C15.3165825,10.0976311 14.6834175,10.0976311 14.2928932,9.70710678 C13.9324093,9.34662282 13.9046797,8.77939176 14.2097046,8.38710056 L14.2928932,8.29289322 L20.2928932,2.29289322 C20.6834175,1.90236893 21.3165825,1.90236893 21.7071068,2.29289322 Z M15.7071068,2.29289322 C16.0976311,2.68341751 16.0976311,3.31658249 15.7071068,3.70710678 C15.3165825,4.09763107 14.6834175,4.09763107 14.2928932,3.70710678 C13.9023689,3.31658249 13.9023689,2.68341751 14.2928932,2.29289322 C14.6834175,1.90236893 15.3165825,1.90236893 15.7071068,2.29289322 Z"/>
</svg>

<svg xmlns="http://www.w3.org/2000/svg" viewBox="0 0 24 24">
  <path d="M10 16c2.92 0 5.85.95 6 3.31v1.19c0 .48 0 1.4-.86 1.5H3c-.9 0-.99-.81-1-1.34V19.5c0-2.44 2.85-3.45 5.77-3.5H10zM9 6a4 4 0 1 1 0 8 4 4 0 0 1 0-8zm12.7 2.3a1 1 0 1 1-1.4 1.4 1 1 0 0 1 1.4-1.4zm0-6a1 1 0 0 1 .09 1.31l-.08.1-6 6a1 1 0 0 1-1.5-1.32l.08-.1 6-6a1 1 0 0 1 1.42 0zm-6 0a1 1 0 1 1-1.4 1.4 1 1 0 0 1 1.4-1.4z"/>
</svg>
